_raw/images/logo-white.svg

<svg fill="none" height="35" viewBox="0 0 120 35" width="120" xmlns="http://www.w3.org/2000/svg" xmlns:xlink="http://www.w3.org/1999/xlink"><linearGradient id="a" gradientUnits="userSpaceOnUse" x1="13.4406" x2="31.3065" y1="16.8092" y2="21.8549"><stop offset="0" stop-color="#fff"/><stop offset="1" stop-color="#fff"/></linearGradient><linearGradient id="b"><stop offset="0" stop-color="#8697ff"/><stop offset="1" stop-color="#8697ff" stop-opacity="0"/></linearGradient><linearGradient id="c" gradientUnits="userSpaceOnUse" x1="28.2887" x2="15.3525" xlink:href="#b" y1="16.469" y2="3.55433"/><linearGradient id="d" gradientUnits="userSpaceOnUse" x1="21.6366" x2="9.23573" xlink:href="#b" y1="23.7218" y2="16.6214"/><linearGradient id="e" gradientUnits="userSpaceOnUse" x1="14.507" x2="22.9145" y1="16.6756" y2="27.3145"><stop offset="0" stop-color="#fff"/><stop offset=".983895" stop-color="#d1d8ff"/></linearGradient><g fill="#fff"><path d="m39.6688 17.4765h.4315c.451 0 .797-.1025 1.0381-.3074.241-.2049.3615-.4995.3615-.8837 0-.3843-.1205-.6788-.3615-.8837-.2411-.205-.5871-.3074-1.0381-.3074h-.4315zm5.0269 5.3406h-2.8459l-2.181-3.7141v3.7141h-2.286v-9.6567h3.5573c.4899 0 .9175.0811 1.283.2433.3654.1537.6648.3672.898.6404.2411.2732.4199.5891.5365.9477.1244.3586.1867.7429.1867 1.1527 0 .7343-.1633 1.332-.4899 1.793-.3188.4525-.7931.7599-1.4229.9222z"/><path d="m46.5765 19.5128c0 .2135.035.4141.105.602.07.1793.1633.3372.2799.4738.1244.1367.2683.2434.4316.3202.171.0769.3538.1153.5481.1153.1867 0 .3616-.0384.5249-.1153.1711-.0768.3149-.1835.4315-.3202.1244-.1366.2216-.2945.2916-.4738.0778-.1793.1166-.3714.1166-.5764 0-.2049-.0388-.397-.1166-.5763-.07-.1878-.1672-.3501-.2916-.4867-.1166-.1366-.2604-.2433-.4315-.3202-.1633-.0768-.3382-.1152-.5249-.1152-.1943 0-.3771.0384-.5481.1152-.1633.0769-.3072.1836-.4316.3202-.1166.1366-.2099.2946-.2799.4739-.07.1708-.105.3586-.105.5635zm2.6593-3.2659h2.1227v6.5702h-2.1227v-.73c-.451.6233-1.0614.9349-1.8312.9349-.4354 0-.8358-.0853-1.2013-.2561-.3654-.1793-.6842-.4269-.9564-.7428-.2721-.3159-.4859-.6874-.6414-1.1143-.1478-.4269-.2216-.8922-.2216-1.396 0-.4696.0738-.9136.2216-1.3319.1477-.427.3537-.7984.6181-1.1143s.5793-.5635.9447-.7428c.3655-.1878.7698-.2818 1.213-.2818.7465 0 1.3646.2861 1.8545.8581z"/><path d="m56.8655 19.5512c0-.2049-.035-.397-.1049-.5763-.07-.1878-.1672-.3501-.2916-.4867s-.2683-.2433-.4316-.3201c-.1632-.0854-.3421-.1281-.5365-.1281-.1866 0-.3615.0384-.5248.1152-.1633.0769-.3071.1836-.4315.3202-.1167.1366-.2139.2989-.2916.4867-.07.1793-.105.3714-.105.5763 0 .205.035.3971.105.5764s.1671.3372.2916.4738c.1244.1281.2682.2348.4315.3202.1711.0769.3499.1153.5365.1153s.3616-.0384.5248-.1153c.1633-.0768.3033-.1835.4199-.3202.1244-.1366.2216-.2945.2916-.4738.0778-.1793.1166-.3672.1166-.5636zm-2.6592-7.3642v4.7131c.4977-.572 1.1197-.8581 1.8661-.8581.4432 0 .8476.094 1.213.2818.3732.1793.6881.4269.9447.7428.2644.3074.4705.6745.6182 1.1015.1477.4183.2216.8666.2216 1.3447 0 .4867-.0778.9435-.2333 1.3704-.1477.4269-.3576.7983-.6298 1.1143-.2721.3159-.5948.5677-.968.7556-.3655.1793-.762.2689-1.1897.2689-.7775 0-1.3918-.3116-1.8428-.9349v.73h-2.111v-10.6301z"/><path d="m64.3437 19.5512c0-.2049-.035-.397-.105-.5763-.07-.1878-.1672-.3501-.2916-.4867s-.2682-.2433-.4315-.3201c-.1633-.0854-.3421-.1281-.5365-.1281-.1866 0-.3616.0384-.5249.1152-.1633.0769-.3071.1836-.4315.3202-.1166.1366-.2138.2989-.2916.4867-.07.1793-.105.3714-.105.5763 0 .205.035.3971.105.5764s.1672.3372.2916.4738c.1244.1281.2682.2348.4315.3202.1711.0769.3499.1153.5365.1153.1867 0 .3616-.0384.5249-.1153.1633-.0768.3032-.1835.4199-.3202.1244-.1366.2216-.2945.2916-.4738.0777-.1793.1166-.3672.1166-.5636zm-2.6592-7.3642v4.7131c.4976-.572 1.1196-.8581 1.8661-.8581.4432 0 .8475.094 1.213.2818.3732.1793.6881.4269.9447.7428.2643.3074.4704.6745.6181 1.1015.1478.4183.2216.8666.2216 1.3447 0 .4867-.0777.9435-.2332 1.3704-.1478.4269-.3577.7983-.6298 1.1143-.2722.3159-.5949.5677-.9681.7556-.3654.1793-.762.2689-1.1896.2689-.7776 0-1.3919-.3116-1.8428-.9349v.73h-2.1111v-10.6301z"/><path d="m68.902 21.9206-2.8925-5.6737h2.4493l1.5979 3.3684 1.5512-3.3684h2.4259l-4.8052 9.8489h-2.3677z"/><path d="m78.9945 13.1604 1.5162 6.2372 1.8661-6.2372h1.8195l1.8661 6.2372 1.5162-6.2372h2.391l-2.6243 9.6567h-2.3326l-1.7262-5.5968-1.7261 5.5968h-2.3327l-2.6242-9.6567z"/><path d="m91.5593 19.5128c0 .2135.035.4141.105.602.07.1793.1633.3372.2799.4738.1244.1367.2683.2434.4316.3202.171.0769.3537.1153.5481.1153.1866 0 .3616-.0384.5249-.1153.171-.0768.3149-.1835.4315-.3202.1244-.1366.2216-.2945.2916-.4738.0777-.1793.1166-.3714.1166-.5764 0-.2049-.0389-.397-.1166-.5763-.07-.1878-.1672-.3501-.2916-.4867-.1166-.1366-.2605-.2433-.4315-.3202-.1633-.0768-.3383-.1152-.5249-.1152-.1944 0-.3771.0384-.5481.1152-.1633.0769-.3072.1836-.4316.3202-.1166.1366-.2099.2946-.2799.4739-.07.1708-.105.3586-.105.5635zm2.6592-3.2659h2.1228v6.5702h-2.1228v-.73c-.4509.6233-1.0613.9349-1.8311.9349-.4354 0-.8359-.0853-1.2013-.2561-.3654-.1793-.6842-.4269-.9564-.7428-.2721-.3159-.486-.6874-.6415-1.1143-.1477-.4269-.2216-.8922-.2216-1.396 0-.4696.0739-.9136.2216-1.3319.1478-.427.3538-.7984.6182-1.1143s.5793-.5635.9447-.7428c.3655-.1878.7698-.2818 1.213-.2818.7464 0 1.3646.2861 1.8544.8581z"/><path d="m99.1891 12.187v10.6301h-2.1111v-10.6301z"/><path d="m102.043 12.187v10.6301h-2.1111v-10.6301z"/><path d="m107.159 18.5779c-.07-.3245-.213-.5849-.431-.7813-.218-.1963-.482-.2945-.793-.2945-.327 0-.595.0939-.805.2817-.202.1879-.33.4526-.385.7941zm-2.472 1.3448c0 .9989.428 1.4984 1.283 1.4984.459 0 .805-.2049 1.038-.6147h2.041c-.412 1.5027-1.442 2.2541-3.091 2.2541-.505 0-.968-.0811-1.388-.2434-.42-.1707-.781-.4098-1.084-.7172-.296-.3074-.525-.6745-.689-1.1014-.163-.4269-.245-.9051-.245-1.4344 0-.5465.078-1.0374.234-1.4729.155-.444.377-.8197.665-1.127.287-.3074.633-.5422 1.038-.7044.412-.1708.874-.2562 1.388-.2562.505 0 .96.0854 1.364.2562.404.1622.747.4013 1.026.7172.28.3159.494.7044.642 1.1654.148.4526.222.9649.222 1.5369v.2434z"/><path d="m112.073 18.1809v4.6362h-2.111v-4.6362h-.7v-1.934h.7v-1.9723h2.111v1.9723h1.201v1.934z"/></g><path d="m31.514 18.8241c1.0143-2.2753-4.0002-8.6321-8.7909-11.28053-3.0197-2.05168-6.1662-1.76981-6.8034-.86897-1.3986 1.97698 4.6309 3.6522 8.6634 5.607-.8669.378-1.6837 1.0564-2.1641 1.924-1.5033-1.648-4.8029-3.0672-8.6746-1.924-2.609.7703-4.77738 2.5864-5.61543 5.3295-.20363-.0909-.42909-.1414-.66629-.1414-.90706 0-1.64237.7383-1.64237 1.6491s.73531 1.6491 1.64237 1.6491c.16813 0 .69381-.1132.69381-.1132l8.40041.0611c-3.3595 5.3514-6.0145 6.1337-6.0145 7.0608 0 .9272 2.5404.6759 3.4942.3304 4.5661-1.6544 9.4704-6.8102 10.3119-8.2944 3.5341.4427 6.5041.4951 7.1655-.9885z" fill="url(#a)"/><path clip-rule="evenodd" d="m24.5824 12.2825c.0002 0 .0004.0001.0007.0002.1868-.0739.1566-.3511.1053-.5687-.118-.5004-2.1533-2.51844-4.0646-3.42234-2.6043-1.2317-4.5221-1.16819-4.8054-.60049.5305 1.09176 2.9899 2.11678 5.5585 3.18733 1.0958.4567 2.2116.9218 3.2059 1.4038-.0001 0-.0003.0001-.0004.0002z" fill="url(#c)" fill-rule="evenodd"/><path clip-rule="evenodd" d="m21.2783 23.2702c-.5267-.2021-1.1217-.3876-1.7982-.5559.7212-1.2958.8726-3.2141.1914-4.427-.9559-1.7021-2.1558-2.6081-4.9442-2.6081-1.5337 0-5.66285.5187-5.73615 3.9798-.00769.3632-.00019.696.02599 1.0021l7.54036.0549c-1.0166 1.6192-1.9686 2.8202-2.8021 3.7333 1.0007.2575 1.8265.4736 2.5846.6721.7195.1883 1.378.3607 2.0672.5373 1.0397-.7606 2.0171-1.5899 2.8711-2.3885z" fill="url(#d)" fill-rule="evenodd"/><path d="m8.02876 20.3055c.30803 2.6292 1.79617 3.6596 4.83704 3.9646 3.0409.3049 4.7852.1003 7.1074.3125 1.9395.1772 3.6713 1.1696 4.3137.8266.5782-.3086.2548-1.4237-.5189-2.1391-1.0029-.9274-2.3908-1.5722-4.833-1.801.4867-1.3381.3503-3.2142-.4056-4.235-1.093-1.4759-3.1103-2.1431-5.6636-1.8516-2.6676.3046-5.22361 1.6233-4.83704 4.923z" fill="url(#e)"/></svg>

<svg width="120" height="35" viewBox="0 0 120 35" fill="none" xmlns="http://www.w3.org/2000/svg">
<path d="M39.6688 17.4765H40.1003C40.5513 17.4765 40.8973 17.374 41.1384 17.1691C41.3794 16.9642 41.4999 16.6696 41.4999 16.2854C41.4999 15.9011 41.3794 15.6066 41.1384 15.4017C40.8973 15.1967 40.5513 15.0943 40.1003 15.0943H39.6688V17.4765ZM44.6957 22.8171H41.8498L39.6688 19.103V22.8171H37.3828V13.1604H40.9401C41.43 13.1604 41.8576 13.2415 42.2231 13.4037C42.5885 13.5574 42.8879 13.7709 43.1211 14.0441C43.3622 14.3173 43.541 14.6332 43.6576 14.9918C43.782 15.3504 43.8443 15.7347 43.8443 16.1445C43.8443 16.8788 43.681 17.4765 43.3544 17.9375C43.0356 18.39 42.5613 18.6974 41.9315 18.8597L44.6957 22.8171Z" fill="white"/>
<path d="M46.5765 19.5128C46.5765 19.7263 46.6115 19.9269 46.6815 20.1148C46.7515 20.2941 46.8448 20.452 46.9614 20.5886C47.0858 20.7253 47.2297 20.832 47.393 20.9088C47.564 20.9857 47.7468 21.0241 47.9411 21.0241C48.1278 21.0241 48.3027 20.9857 48.466 20.9088C48.6371 20.832 48.7809 20.7253 48.8975 20.5886C49.0219 20.452 49.1191 20.2941 49.1891 20.1148C49.2669 19.9355 49.3057 19.7434 49.3057 19.5384C49.3057 19.3335 49.2669 19.1414 49.1891 18.9621C49.1191 18.7743 49.0219 18.612 48.8975 18.4754C48.7809 18.3388 48.6371 18.2321 48.466 18.1552C48.3027 18.0784 48.1278 18.04 47.9411 18.04C47.7468 18.04 47.564 18.0784 47.393 18.1552C47.2297 18.2321 47.0858 18.3388 46.9614 18.4754C46.8448 18.612 46.7515 18.77 46.6815 18.9493C46.6115 19.1201 46.5765 19.3079 46.5765 19.5128ZM49.2358 16.2469H51.3585V22.8171H49.2358V22.0871C48.7848 22.7104 48.1744 23.022 47.4046 23.022C46.9692 23.022 46.5688 22.9367 46.2033 22.7659C45.8379 22.5866 45.5191 22.339 45.2469 22.0231C44.9748 21.7072 44.761 21.3357 44.6055 20.9088C44.4577 20.4819 44.3839 20.0166 44.3839 19.5128C44.3839 19.0432 44.4577 18.5992 44.6055 18.1809C44.7532 17.7539 44.9592 17.3825 45.2236 17.0666C45.488 16.7507 45.8029 16.5031 46.1683 16.3238C46.5338 16.136 46.9381 16.042 47.3813 16.042C48.1278 16.042 48.7459 16.3281 49.2358 16.9001V16.2469Z" fill="white"/>
<path d="M56.8655 19.5512C56.8655 19.3463 56.8305 19.1542 56.7606 18.9749C56.6906 18.7871 56.5934 18.6248 56.469 18.4882C56.3446 18.3516 56.2007 18.2449 56.0374 18.1681C55.8742 18.0827 55.6953 18.04 55.5009 18.04C55.3143 18.04 55.1394 18.0784 54.9761 18.1552C54.8128 18.2321 54.669 18.3388 54.5446 18.4754C54.4279 18.612 54.3307 18.7743 54.253 18.9621C54.183 19.1414 54.148 19.3335 54.148 19.5384C54.148 19.7434 54.183 19.9355 54.253 20.1148C54.323 20.2941 54.4201 20.452 54.5446 20.5886C54.669 20.7167 54.8128 20.8234 54.9761 20.9088C55.1472 20.9857 55.326 21.0241 55.5126 21.0241C55.6992 21.0241 55.8742 20.9857 56.0374 20.9088C56.2007 20.832 56.3407 20.7253 56.4573 20.5886C56.5817 20.452 56.6789 20.2941 56.7489 20.1148C56.8267 19.9355 56.8655 19.7476 56.8655 19.5512ZM54.2063 12.187V16.9001C54.704 16.3281 55.326 16.042 56.0724 16.042C56.5156 16.042 56.92 16.136 57.2854 16.3238C57.6586 16.5031 57.9735 16.7507 58.2301 17.0666C58.4945 17.374 58.7006 17.7411 58.8483 18.1681C58.996 18.5864 59.0699 19.0347 59.0699 19.5128C59.0699 19.9995 58.9921 20.4563 58.8366 20.8832C58.6889 21.3101 58.479 21.6815 58.2068 21.9975C57.9347 22.3134 57.612 22.5652 57.2388 22.7531C56.8733 22.9324 56.4768 23.022 56.0491 23.022C55.2716 23.022 54.6573 22.7104 54.2063 22.0871V22.8171H52.0953V12.187H54.2063Z" fill="white"/>
<path d="M64.3437 19.5512C64.3437 19.3463 64.3087 19.1542 64.2387 18.9749C64.1687 18.7871 64.0715 18.6248 63.9471 18.4882C63.8227 18.3516 63.6789 18.2449 63.5156 18.1681C63.3523 18.0827 63.1735 18.04 62.9791 18.04C62.7925 18.04 62.6175 18.0784 62.4542 18.1552C62.2909 18.2321 62.1471 18.3388 62.0227 18.4754C61.9061 18.612 61.8089 18.7743 61.7311 18.9621C61.6611 19.1414 61.6261 19.3335 61.6261 19.5384C61.6261 19.7434 61.6611 19.9355 61.7311 20.1148C61.8011 20.2941 61.8983 20.452 62.0227 20.5886C62.1471 20.7167 62.2909 20.8234 62.4542 20.9088C62.6253 20.9857 62.8041 21.0241 62.9907 21.0241C63.1774 21.0241 63.3523 20.9857 63.5156 20.9088C63.6789 20.832 63.8188 20.7253 63.9355 20.5886C64.0599 20.452 64.1571 20.2941 64.2271 20.1148C64.3048 19.9355 64.3437 19.7476 64.3437 19.5512ZM61.6845 12.187V16.9001C62.1821 16.3281 62.8041 16.042 63.5506 16.042C63.9938 16.042 64.3981 16.136 64.7636 16.3238C65.1368 16.5031 65.4517 16.7507 65.7083 17.0666C65.9726 17.374 66.1787 17.7411 66.3264 18.1681C66.4742 18.5864 66.548 19.0347 66.548 19.5128C66.548 19.9995 66.4703 20.4563 66.3148 20.8832C66.167 21.3101 65.9571 21.6815 65.685 21.9975C65.4128 22.3134 65.0901 22.5652 64.7169 22.7531C64.3515 22.9324 63.9549 23.022 63.5273 23.022C62.7497 23.022 62.1354 22.7104 61.6845 22.0871V22.8171H59.5734V12.187H61.6845Z" fill="white"/>
<path d="M68.902 21.9206L66.0095 16.2469H68.4588L70.0567 19.6153L71.6079 16.2469H74.0338L69.2286 26.0958H66.8609L68.902 21.9206Z" fill="white"/>
<path d="M78.9945 13.1604L80.5107 19.3976L82.3768 13.1604H84.1963L86.0624 19.3976L87.5786 13.1604H89.9696L87.3453 22.8171H85.0127L83.2865 17.2203L81.5604 22.8171H79.2277L76.6035 13.1604H78.9945Z" fill="white"/>
<path d="M91.5593 19.5128C91.5593 19.7263 91.5943 19.9269 91.6643 20.1148C91.7343 20.2941 91.8276 20.452 91.9442 20.5886C92.0686 20.7253 92.2125 20.832 92.3758 20.9088C92.5468 20.9857 92.7295 21.0241 92.9239 21.0241C93.1105 21.0241 93.2855 20.9857 93.4488 20.9088C93.6198 20.832 93.7637 20.7253 93.8803 20.5886C94.0047 20.452 94.1019 20.2941 94.1719 20.1148C94.2496 19.9355 94.2885 19.7434 94.2885 19.5384C94.2885 19.3335 94.2496 19.1414 94.1719 18.9621C94.1019 18.7743 94.0047 18.612 93.8803 18.4754C93.7637 18.3388 93.6198 18.2321 93.4488 18.1552C93.2855 18.0784 93.1105 18.04 92.9239 18.04C92.7295 18.04 92.5468 18.0784 92.3758 18.1552C92.2125 18.2321 92.0686 18.3388 91.9442 18.4754C91.8276 18.612 91.7343 18.77 91.6643 18.9493C91.5943 19.1201 91.5593 19.3079 91.5593 19.5128ZM94.2185 16.2469H96.3413V22.8171H94.2185V22.0871C93.7676 22.7104 93.1572 23.022 92.3874 23.022C91.952 23.022 91.5515 22.9367 91.1861 22.7659C90.8207 22.5866 90.5019 22.339 90.2297 22.0231C89.9576 21.7072 89.7437 21.3357 89.5882 20.9088C89.4405 20.4819 89.3666 20.0166 89.3666 19.5128C89.3666 19.0432 89.4405 18.5992 89.5882 18.1809C89.736 17.7539 89.942 17.3825 90.2064 17.0666C90.4708 16.7507 90.7857 16.5031 91.1511 16.3238C91.5166 16.136 91.9209 16.042 92.3641 16.042C93.1105 16.042 93.7287 16.3281 94.2185 16.9001V16.2469Z" fill="white"/>
<path d="M99.1891 12.187V22.8171H97.078V12.187H99.1891Z" fill="white"/>
<path d="M102.043 12.187V22.8171H99.9319V12.187H102.043Z" fill="white"/>
<path d="M107.159 18.5779C107.089 18.2534 106.946 17.993 106.728 17.7966C106.51 17.6003 106.246 17.5021 105.935 17.5021C105.608 17.5021 105.34 17.596 105.13 17.7838C104.928 17.9717 104.8 18.2364 104.745 18.5779H107.159ZM104.687 19.9227C104.687 20.9216 105.115 21.4211 105.97 21.4211C106.429 21.4211 106.775 21.2162 107.008 20.8064H109.049C108.637 22.3091 107.607 23.0605 105.958 23.0605C105.453 23.0605 104.99 22.9794 104.57 22.8171C104.15 22.6464 103.789 22.4073 103.486 22.0999C103.19 21.7925 102.961 21.4254 102.797 20.9985C102.634 20.5716 102.552 20.0934 102.552 19.5641C102.552 19.0176 102.63 18.5267 102.786 18.0912C102.941 17.6472 103.163 17.2715 103.451 16.9642C103.738 16.6568 104.084 16.422 104.489 16.2598C104.901 16.089 105.363 16.0036 105.877 16.0036C106.382 16.0036 106.837 16.089 107.241 16.2598C107.645 16.422 107.988 16.6611 108.267 16.977C108.547 17.2929 108.761 17.6814 108.909 18.1424C109.057 18.595 109.131 19.1073 109.131 19.6793V19.9227H104.687Z" fill="white"/>
<path d="M112.073 18.1809V22.8171H109.962V18.1809H109.262V16.2469H109.962V14.2746H112.073V16.2469H113.274V18.1809H112.073Z" fill="white"/>
<path d="M31.514 18.8241C32.5283 16.5488 27.5138 10.192 22.7231 7.54357C19.7034 5.49189 16.5569 5.77376 15.9197 6.6746C14.5211 8.65158 20.5506 10.3268 24.5831 12.2816C23.7162 12.6596 22.8994 13.338 22.419 14.2056C20.9157 12.5576 17.6161 11.1384 13.7444 12.2816C11.1354 13.0519 8.96702 14.868 8.12897 17.6111C7.92534 17.5202 7.69988 17.4697 7.46268 17.4697C6.55562 17.4697 5.82031 18.208 5.82031 19.1188C5.82031 20.0296 6.55562 20.7679 7.46268 20.7679C7.63081 20.7679 8.15649 20.6547 8.15649 20.6547L16.5569 20.7158C13.1974 26.0672 10.5424 26.8495 10.5424 27.7766C10.5424 28.7038 13.0828 28.4525 14.0366 28.107C18.6027 26.4526 23.507 21.2968 24.3485 19.8126C27.8826 20.2553 30.8526 20.3077 31.514 18.8241Z" fill="url(#paint0_linear_26101_5370)"/>
<path fill-rule="evenodd" clip-rule="evenodd" d="M24.5824 12.2825C24.5826 12.2825 24.5828 12.2826 24.5831 12.2827C24.7699 12.2088 24.7397 11.9316 24.6884 11.714C24.5704 11.2136 22.5351 9.19556 20.6238 8.29166C18.0195 7.05996 16.1017 7.12347 15.8184 7.69117C16.3489 8.78293 18.8083 9.80795 21.3769 10.8785C22.4727 11.3352 23.5885 11.8003 24.5828 12.2823C24.5827 12.2823 24.5825 12.2824 24.5824 12.2825Z" fill="url(#paint1_linear_26101_5370)"/>
<path fill-rule="evenodd" clip-rule="evenodd" d="M21.2783 23.2702C20.7516 23.0681 20.1566 22.8826 19.4801 22.7143C20.2013 21.4185 20.3527 19.5002 19.6715 18.2873C18.7156 16.5852 17.5157 15.6792 14.7273 15.6792C13.1936 15.6792 9.06445 16.1979 8.99115 19.659C8.98346 20.0222 8.99096 20.355 9.01714 20.6611L16.5575 20.716C15.5409 22.3352 14.5889 23.5362 13.7554 24.4493C14.7561 24.7068 15.5819 24.9229 16.34 25.1214C17.0595 25.3097 17.718 25.4821 18.4072 25.6587C19.4469 24.8981 20.4243 24.0688 21.2783 23.2702Z" fill="url(#paint2_linear_26101_5370)"/>
<path d="M8.02876 20.3055C8.33679 22.9347 9.82493 23.9651 12.8658 24.2701C15.9067 24.575 17.651 24.3704 19.9732 24.5826C21.9127 24.7598 23.6445 25.7522 24.2869 25.4092C24.8651 25.1006 24.5417 23.9855 23.768 23.2701C22.7651 22.3427 21.3772 21.6979 18.935 21.4691C19.4217 20.131 19.2853 18.2549 18.5294 17.2341C17.4364 15.7582 15.4191 15.091 12.8658 15.3825C10.1982 15.6871 7.64219 17.0058 8.02876 20.3055Z" fill="url(#paint3_linear_26101_5370)"/>
<defs>
<linearGradient id="paint0_linear_26101_5370" x1="13.4406" y1="16.8092" x2="31.3065" y2="21.8549" gradientUnits="userSpaceOnUse">
<stop stop-color="white"/>
<stop offset="1" stop-color="white"/>
</linearGradient>
<linearGradient id="paint1_linear_26101_5370" x1="28.2887" y1="16.469" x2="15.3525" y2="3.55433" gradientUnits="userSpaceOnUse">
<stop stop-color="#8697FF"/>
<stop offset="1" stop-color="#8697FF" stop-opacity="0"/>
</linearGradient>
<linearGradient id="paint2_linear_26101_5370" x1="21.6366" y1="23.7218" x2="9.23573" y2="16.6214" gradientUnits="userSpaceOnUse">
<stop stop-color="#8697FF"/>
<stop offset="1" stop-color="#8697FF" stop-opacity="0"/>
</linearGradient>
<linearGradient id="paint3_linear_26101_5370" x1="14.507" y1="16.6756" x2="22.9145" y2="27.3145" gradientUnits="userSpaceOnUse">
<stop stop-color="white"/>
<stop offset="0.983895" stop-color="#D1D8FF"/>
</linearGradient>
</defs>
</svg>
